assets/svg/networks/wallet_uniswap.svg

<svg width="36" height="36" viewBox="0 0 36 36" fill="none" xmlns="http://www.w3.org/2000/svg">
<g clip-path="url(#clip0_21224_78187)">
<rect width="36" height="36" rx="12" fill="#FF007A"/>
<g clip-path="url(#clip1_21224_78187)">
<path d="M15.236 11.4613C14.9739 11.4241 14.9615 11.4118 15.0862 11.3994C15.3233 11.3622 15.8723 11.4118 16.2592 11.4985C17.1575 11.709 17.9686 12.2539 18.8296 13.2074L19.0542 13.4675L19.3786 13.418C20.7636 13.195 22.1861 13.3684 23.3715 13.9133C23.6959 14.0619 24.2075 14.3591 24.2698 14.4334C24.2948 14.4582 24.3322 14.6192 24.3572 14.7802C24.4445 15.3622 24.4071 15.7957 24.2199 16.13C24.1201 16.3158 24.1201 16.3653 24.1825 16.5263C24.2324 16.6502 24.3821 16.7368 24.5194 16.7368C24.8189 16.7368 25.1308 16.2663 25.2805 15.6099L25.3429 15.3498L25.4552 15.4737C26.0916 16.1796 26.5907 17.1579 26.6656 17.8514L26.6905 18.0372L26.5782 17.8762C26.3911 17.5913 26.2164 17.4056 25.9793 17.2446C25.5551 16.9598 25.1059 16.8731 23.9205 16.8111C22.8474 16.7492 22.236 16.6625 21.637 16.4644C20.6139 16.13 20.0898 15.6966 18.8795 14.0991C18.3429 13.3932 18.006 13.0093 17.6691 12.6873C16.933 11.9814 16.1968 11.6099 15.236 11.4613Z" fill="white"/>
<path d="M24.5319 13.0341C24.5568 12.5635 24.6192 12.2539 24.7565 11.969C24.8064 11.8576 24.8563 11.7585 24.8688 11.7585C24.8813 11.7585 24.8563 11.8452 24.8189 11.9443C24.719 12.2167 24.7066 12.6006 24.769 13.0341C24.8563 13.5913 24.8937 13.6656 25.4927 14.2724C25.7672 14.5573 26.0916 14.9164 26.2164 15.065L26.4285 15.3375L26.2164 15.1393C25.9543 14.8916 25.3554 14.4211 25.2182 14.3591C25.1308 14.3096 25.1183 14.3096 25.0559 14.3715C25.006 14.4211 24.9936 14.4954 24.9936 14.8545C24.9811 15.4118 24.9062 15.7585 24.719 16.1176C24.6192 16.3034 24.6067 16.2663 24.6941 16.0557C24.7565 15.8947 24.769 15.8204 24.769 15.2879C24.769 14.2105 24.6442 13.9505 23.883 13.517C23.6959 13.4056 23.3715 13.2446 23.1843 13.1579C22.9846 13.0712 22.8349 12.9969 22.8474 12.9969C22.8723 12.9721 23.6085 13.1827 23.8955 13.3065C24.3322 13.4799 24.4071 13.4923 24.457 13.4799C24.4944 13.4427 24.5194 13.3437 24.5319 13.0341Z" fill="white"/>
<path d="M15.7476 14.8793C15.2235 14.161 14.8866 13.0464 14.9615 12.2167L14.9864 11.9567L15.1112 11.9814C15.3358 12.0186 15.7226 12.1672 15.9098 12.2786C16.4089 12.5759 16.6335 12.9845 16.8456 14C16.908 14.2972 16.9953 14.644 17.0328 14.7554C17.0952 14.9412 17.3322 15.3746 17.5319 15.6471C17.6691 15.8452 17.5818 15.9443 17.2698 15.9195C16.7957 15.87 16.1593 15.4365 15.7476 14.8793Z" fill="white"/>
<path d="M23.8955 20.2663C21.4249 19.2755 20.5515 18.4211 20.5515 16.9721C20.5515 16.7616 20.564 16.5882 20.564 16.5882C20.5764 16.5882 20.6638 16.6625 20.7761 16.7492C21.2752 17.1455 21.8367 17.3189 23.3964 17.5418C24.3073 17.678 24.8313 17.7771 25.3055 17.9381C26.8153 18.4334 27.7511 19.4489 27.9757 20.8235C28.0381 21.2198 28.0007 21.9752 27.9009 22.3715C27.8135 22.6811 27.564 23.2508 27.5016 23.2632C27.4891 23.2632 27.4641 23.2012 27.4641 23.1022C27.4392 22.582 27.1772 22.0867 26.7404 21.7028C26.2164 21.257 25.5426 20.9226 23.8955 20.2663Z" fill="white"/>
<path d="M22.1486 20.6749C22.1237 20.4892 22.0613 20.2539 22.0239 20.1548L21.9615 19.969L22.0738 20.1053C22.236 20.291 22.3608 20.5139 22.4731 20.8235C22.5604 21.0588 22.5604 21.1331 22.5604 21.517C22.5604 21.8885 22.5479 21.9752 22.4731 22.1858C22.3483 22.5201 22.1985 22.7554 21.949 23.0155C21.4998 23.4737 20.9133 23.7214 20.0773 23.8328C19.9276 23.8452 19.5034 23.8824 19.129 23.9071C18.1932 23.9567 17.5693 24.0557 17.0078 24.2539C16.933 24.2786 16.8581 24.3034 16.8456 24.291C16.8207 24.2663 17.2075 24.0433 17.5194 23.8947C17.9561 23.6842 18.4053 23.5728 19.3911 23.3994C19.8777 23.3251 20.3768 23.226 20.5016 23.1765C21.7369 22.7926 22.3483 21.839 22.1486 20.6749Z" fill="white"/>
<path d="M23.2841 22.6687C22.9597 21.9628 22.8848 21.2941 23.0595 20.6625C23.0845 20.6006 23.1094 20.5387 23.1344 20.5387C23.1593 20.5387 23.2342 20.5759 23.3091 20.6254C23.4588 20.7245 23.7707 20.8978 24.5693 21.3313C25.58 21.8762 26.154 22.2972 26.5533 22.7802C26.9026 23.2012 27.1148 23.6842 27.2146 24.2786C27.277 24.613 27.2395 25.418 27.1522 25.7523C26.8777 26.805 26.2538 27.6471 25.3429 28.13C25.2057 28.2043 25.0934 28.2539 25.0809 28.2539C25.0684 28.2539 25.1183 28.13 25.1932 27.9814C25.4927 27.3498 25.5301 26.743 25.3055 26.0619C25.1682 25.6409 24.8813 25.1331 24.3073 24.2786C23.621 23.2879 23.4588 23.0279 23.2841 22.6687Z" fill="white"/>
<path d="M13.9882 26.4582C14.9116 25.6904 16.047 25.1455 17.0952 24.9721C17.5444 24.8978 18.293 24.9226 18.7048 25.0341C19.3661 25.2074 19.965 25.5789 20.277 26.0372C20.5764 26.483 20.7137 26.8669 20.851 27.7214C20.9009 28.0557 20.9633 28.4025 20.9757 28.4768C21.0756 28.9226 21.2752 29.2693 21.5248 29.4551C21.9116 29.7399 22.5854 29.7523 23.2467 29.5046C23.359 29.4675 23.4588 29.4303 23.4588 29.4427C23.4838 29.4675 23.1469 29.6904 22.9223 29.8019C22.6103 29.9628 22.3608 30.0124 22.0239 30.0124C21.4249 30.0124 20.9133 29.7028 20.5016 29.0836C20.4142 28.9598 20.2395 28.6006 20.0898 28.2663C19.6531 27.2632 19.4285 26.9659 18.9169 26.6316C18.4677 26.3468 17.8937 26.2848 17.457 26.4954C16.883 26.7678 16.7333 27.4985 17.1326 27.9443C17.2948 28.13 17.5943 28.2786 17.8438 28.3158C18.3055 28.3777 18.7048 28.0186 18.7048 27.5604C18.7048 27.2632 18.5925 27.0898 18.293 26.9536C17.8937 26.7802 17.457 26.9783 17.4695 27.3622C17.4695 27.5232 17.5444 27.6223 17.7066 27.6966C17.8064 27.7461 17.8064 27.7461 17.7315 27.7337C17.3697 27.6594 17.2823 27.2136 17.5693 26.9288C17.9187 26.582 18.6549 26.7306 18.9044 27.2136C19.0043 27.4118 19.0167 27.8081 18.9294 28.0557C18.7173 28.6006 18.1183 28.8854 17.5069 28.7245C17.0952 28.613 16.9205 28.5015 16.4214 27.9938C15.5479 27.1022 15.211 26.9288 13.9633 26.743L13.7262 26.7059L13.9882 26.4582Z" fill="white"/>
<path fill-rule="evenodd" clip-rule="evenodd" d="M7.4248 6.53251C10.3321 10.0372 14.8116 15.4861 15.0362 15.7833C15.2234 16.031 15.1485 16.2663 14.8366 16.4396C14.6619 16.5387 14.3 16.6378 14.1253 16.6378C13.9257 16.6378 13.6886 16.5387 13.5264 16.3777C13.4141 16.2663 12.9275 15.5604 11.8294 13.8638C10.9934 12.5635 10.2822 11.4861 10.2697 11.4737C10.2198 11.4489 10.2198 11.4489 11.7421 14.1486C12.7029 15.8452 13.0148 16.452 13.0148 16.5263C13.0148 16.6873 12.9649 16.774 12.7653 16.9969C12.4284 17.3684 12.2786 17.7895 12.1663 18.6687C12.0416 19.6471 11.7047 20.3406 10.7439 21.517C10.1824 22.2105 10.095 22.3344 9.95777 22.6192C9.78309 22.9659 9.73318 23.1641 9.70822 23.6099C9.68326 24.0805 9.73318 24.3777 9.87043 24.8235C9.99521 25.2198 10.1325 25.4799 10.4694 25.9876C10.7563 26.4334 10.931 26.7678 10.931 26.8916C10.931 26.9907 10.956 26.9907 11.4052 26.8916C12.4783 26.644 13.3642 26.2229 13.8508 25.7028C14.1503 25.3808 14.2252 25.2074 14.2252 24.7616C14.2252 24.4768 14.2127 24.4149 14.1378 24.2415C14.013 23.969 13.776 23.7461 13.2644 23.3994C12.5906 22.9412 12.3036 22.5697 12.2287 22.0743C12.1663 21.6532 12.2412 21.3684 12.6155 20.5882C13.0023 19.7833 13.1022 19.4489 13.1645 18.6316C13.202 18.1115 13.2644 17.9009 13.4141 17.7399C13.5763 17.5666 13.7136 17.5046 14.1004 17.4551C14.7367 17.3684 15.1485 17.2074 15.4729 16.8978C15.7599 16.6378 15.8847 16.3777 15.8972 15.9938L15.9096 15.709L15.7474 15.5356C15.161 14.8669 7.03799 6 7.00056 6C6.98808 6 7.18772 6.23529 7.4248 6.53251ZM11.2555 24.1424C11.3927 23.9071 11.3178 23.6099 11.0932 23.4613C10.8811 23.3251 10.5567 23.387 10.5567 23.5728C10.5567 23.6223 10.5817 23.6718 10.6565 23.6966C10.7688 23.7585 10.7813 23.8204 10.694 23.9567C10.6066 24.0929 10.6066 24.2167 10.7189 24.3034C10.8936 24.4396 11.1307 24.3653 11.2555 24.1424Z" fill="white"/>
<path fill-rule="evenodd" clip-rule="evenodd" d="M16.3091 17.6285C16.0096 17.7152 15.7226 18.0372 15.6353 18.3591C15.5854 18.5573 15.6103 18.9164 15.6977 19.0279C15.8349 19.2012 15.9597 19.2508 16.3091 19.2508C16.9953 19.2508 17.5818 18.9536 17.6442 18.5944C17.7066 18.2972 17.4445 17.8885 17.0827 17.7028C16.8955 17.6037 16.5087 17.5666 16.3091 17.6285ZM17.1076 18.2477C17.2075 18.0991 17.17 17.9381 16.9829 17.8266C16.646 17.6161 16.1344 17.7895 16.1344 18.1115C16.1344 18.2724 16.3964 18.4458 16.646 18.4458C16.8082 18.4458 17.0328 18.3467 17.1076 18.2477Z" fill="white"/>
</g>
</g>
<defs>
<clipPath id="clip0_21224_78187">
<rect width="36" height="36" fill="white"/>
</clipPath>
<clipPath id="clip1_21224_78187">
<rect width="24" height="24" fill="white" transform="translate(6 6)"/>
</clipPath>
</defs>
</svg>

<svg xmlns="http://www.w3.org/2000/svg" width="36" height="36" fill="none"><g clip-path="url(#a)"><rect width="36" height="36" fill="#FF007A" rx="12"/><g fill="#fff" clip-path="url(#b)"><path d="M15.236 11.461c-.262-.037-.275-.05-.15-.062.237-.037.786.013 1.173.1.898.21 1.71.755 2.57 1.708l.225.26.325-.049c1.385-.223 2.807-.05 3.992.495.325.149.837.446.899.52.025.025.062.186.087.347.088.582.05 1.016-.137 1.35-.1.186-.1.235-.037.396.05.124.2.21.336.21.3 0 .612-.47.762-1.126l.062-.26.112.124c.637.706 1.136 1.684 1.21 2.377l.026.186-.113-.16a2.1 2.1 0 0 0-.599-.632c-.424-.285-.873-.372-2.058-.434-1.074-.062-1.685-.148-2.284-.347-1.023-.334-1.547-.767-2.758-2.365-.536-.706-.873-1.09-1.21-1.412-.736-.706-1.472-1.077-2.433-1.226"/><path d="M24.532 13.034c.025-.47.087-.78.224-1.065.05-.111.1-.21.113-.21s-.013.086-.05.185c-.1.273-.112.657-.05 1.09.087.557.125.632.724 1.238.274.285.599.644.723.793l.212.273-.212-.199c-.262-.247-.86-.718-.998-.78-.087-.05-.1-.05-.162.012-.05.05-.062.124-.062.483-.013.558-.088.905-.275 1.264-.1.185-.112.148-.025-.062.063-.161.075-.236.075-.768 0-1.078-.125-1.338-.886-1.771a9 9 0 0 0-.699-.36c-.2-.086-.35-.16-.337-.16.025-.025.761.186 1.048.31.437.173.512.185.562.173.037-.037.062-.136.075-.446M15.748 14.88c-.524-.719-.861-1.834-.787-2.663l.025-.26.125.024c.225.038.612.186.799.298.499.297.724.706.936 1.721.062.297.15.644.187.755.062.186.3.62.499.892.137.198.05.297-.262.272-.474-.049-1.11-.482-1.522-1.04M23.896 20.266c-2.471-.99-3.344-1.845-3.344-3.294 0-.21.012-.384.012-.384.012 0 .1.075.212.161.5.396 1.06.57 2.62.793.911.136 1.435.235 1.91.396 1.51.495 2.445 1.51 2.67 2.886.062.396.025 1.151-.075 1.547-.087.31-.337.88-.4.892-.012 0-.037-.062-.037-.16-.025-.521-.287-1.016-.724-1.4-.524-.446-1.197-.78-2.844-1.437M22.149 20.675a3 3 0 0 0-.125-.52l-.062-.186.112.136c.162.186.287.409.4.718.086.236.086.31.086.694 0 .372-.012.458-.087.669a2.24 2.24 0 0 1-.524.83c-.45.458-1.036.705-1.872.817-.15.012-.574.05-.948.074-.936.05-1.56.149-2.121.347-.075.025-.15.05-.162.037-.025-.025.361-.248.673-.396.437-.21.886-.322 1.872-.496.487-.074.986-.173 1.11-.223 1.236-.383 1.847-1.337 1.648-2.501"/><path d="M23.284 22.669q-.487-1.06-.224-2.006c.024-.062.05-.124.074-.124.025 0 .1.037.175.086.15.1.462.273 1.26.706 1.011.545 1.585.966 1.984 1.45.35.42.562.903.662 1.498.062.334.024 1.139-.063 1.473-.274 1.053-.898 1.895-1.81 2.378-.136.074-.249.124-.261.124s.037-.124.112-.273c.3-.631.337-1.238.112-1.92-.137-.42-.424-.928-.998-1.782-.686-.991-.848-1.251-1.023-1.61M13.988 26.458c.924-.768 2.059-1.312 3.107-1.486.45-.074 1.198-.05 1.61.062.661.173 1.26.545 1.572 1.003.3.446.437.83.574 1.684.05.335.112.681.125.756.1.446.3.792.549.978.387.285 1.06.297 1.722.05.112-.037.212-.075.212-.062.025.024-.312.247-.537.359-.312.16-.561.21-.898.21q-.902 0-1.522-.928c-.088-.124-.262-.483-.412-.818-.437-1.003-.662-1.3-1.173-1.634-.45-.285-1.023-.347-1.46-.137-.574.273-.724 1.003-.324 1.45.162.185.461.334.71.37a.76.76 0 0 0 .862-.755c0-.297-.112-.47-.412-.606-.4-.174-.836.024-.823.408 0 .161.074.26.237.335.1.05.1.05.024.037-.361-.075-.449-.52-.162-.805.35-.347 1.086-.198 1.335.285.1.198.113.594.025.842-.212.545-.81.83-1.422.668-.412-.111-.587-.223-1.086-.73-.873-.892-1.21-1.065-2.458-1.251l-.237-.037z"/><path fill-rule="evenodd" d="M7.425 6.533c2.907 3.504 7.387 8.953 7.611 9.25.187.248.113.483-.2.657a1.9 1.9 0 0 1-.71.198c-.2 0-.437-.1-.6-.26-.112-.112-.598-.818-1.697-2.514-.836-1.3-1.547-2.378-1.56-2.39-.05-.025-.05-.025 1.473 2.675.96 1.696 1.273 2.303 1.273 2.377 0 .161-.05.248-.25.47-.337.372-.486.794-.599 1.673-.124.978-.461 1.672-1.422 2.848-.562.694-.649.817-.786 1.102-.175.347-.225.545-.25.99-.025.471.025.769.162 1.214.125.397.263.657.6 1.165.286.445.461.78.461.904 0 .099.025.099.474 0 1.073-.248 1.96-.67 2.446-1.19.3-.321.374-.495.374-.94 0-.285-.012-.347-.087-.52-.125-.273-.362-.496-.874-.843-.673-.458-.96-.83-1.035-1.325-.063-.42.012-.706.387-1.486.386-.805.486-1.14.549-1.956.037-.52.1-.731.25-.892.161-.173.299-.235.685-.285.637-.087 1.049-.248 1.373-.557.287-.26.412-.52.424-.904l.013-.285-.163-.173C15.161 14.866 7.038 6 7.001 6c-.013 0 .187.235.424.533m3.83 17.61a.51.51 0 0 0-.162-.682c-.212-.136-.536-.074-.536.112 0 .05.025.099.1.124.112.062.124.123.037.26-.087.136-.087.26.025.346.175.137.412.062.537-.16M16.31 17.629c-.3.086-.587.408-.675.73-.05.198-.025.557.063.669.137.173.262.223.611.223.686 0 1.273-.297 1.335-.657.063-.297-.2-.706-.561-.891-.187-.1-.574-.136-.774-.075m.798.619c.1-.149.062-.31-.125-.421-.337-.21-.849-.038-.849.284 0 .161.262.335.512.335.162 0 .387-.1.462-.198" clip-rule="evenodd"/></g></g><defs><clipPath id="a"><path fill="#fff" d="M0 0h36v36H0z"/></clipPath><clipPath id="b"><path fill="#fff" d="M6 6h24v24H6z"/></clipPath></defs></svg>
